src/assets/icons/score.svg

<svg width="24" height="24" viewBox="0 0 24 24" fill="none" xmlns="http://www.w3.org/2000/svg">
<path d="M19 15C19 11.0231 16.0855 8 12 8C7.91449 8 5 11.0231 5 15" stroke="#314158" stroke-width="1.5" stroke-linecap="round"/>
<path d="M12.6230 12.6618L13.6715 12.0287C13.7588 11.985 13.8681 11.985 13.9336 12.0724C13.9991 12.1597 14.021 12.247 13.9773 12.3343L13.3438 13.3823C13.2073 13.6144 13.0878 13.855 12.9693 14.0934C12.8983 14.2363 12.8277 14.3785 12.7541 14.5176C12.6886 14.6485 12.623 14.7795 12.5793 14.8887C12.3827 15.2598 12.0114 15.5 11.5964 15.5C11.509 15.5 11.4217 15.5 11.3343 15.4782C10.9411 15.3909 10.6135 15.0634 10.5261 14.6704C10.4169 14.1683 10.6572 13.6661 11.1159 13.426C11.2469 13.3605 11.378 13.295 11.4872 13.2513C11.8585 13.0766 12.2517 12.8801 12.6230 12.6618Z" fill="#314158"/>
</svg>

<svg fill="none" viewBox="0 0 24 24"><path stroke="currentColor" stroke-linecap="round" stroke-width="1.5" d="M19 15c0-3.977-2.915-7-7-7-4.086 0-7 3.023-7 7"/><path fill="currentColor" d="m12.623 12.662 1.049-.633c.087-.044.196-.044.262.043.065.088.087.175.043.262l-.633 1.048c-.137.232-.256.473-.375.711q-.104.215-.215.425c-.065.13-.131.261-.175.37a1.12 1.12 0 0 1-.983.612c-.087 0-.174 0-.262-.022a1.09 1.09 0 0 1-.808-.808 1.13 1.13 0 0 1 .59-1.244 5 5 0 0 1 .371-.175 14 14 0 0 0 1.136-.59"/></svg>
